src/icons/brand/glyph/HubSpotIcon.svg

<svg width="24" height="24" viewBox="0 0 24 24" fill="none" xmlns="http://www.w3.org/2000/svg">
<path d="M17.3836 8.26906V5.66004C18.0389 5.33247 18.4847 4.64481 18.4892 3.84738V3.78533C18.4862 2.67659 17.6311 1.77856 16.5753 1.77493H16.5164C15.4602 1.77805 14.6048 2.67575 14.6013 3.78406V3.84584C14.6048 4.63963 15.0454 5.32456 15.6833 5.6493L15.6947 5.65454L15.706 5.66004V8.27456C14.7099 8.43822 13.829 8.86463 13.1032 9.48375L13.1132 9.47548L13.1237 9.46723L6.28762 3.87882C6.33436 3.70192 6.36122 3.49879 6.36122 3.28909C6.36122 2.02486 5.38493 1 4.18061 1C2.97629 1 2 2.02486 2 3.28909C2 4.55332 2.97629 5.57818 4.18061 5.57818C4.5846 5.57818 4.96295 5.46285 5.28738 5.26185L5.27721 5.26767L5.26673 5.27317L11.9876 10.7653C11.4197 11.6481 11.0811 12.736 11.0811 13.907C11.0811 13.9131 11.0811 13.9192 11.0811 13.9253V13.9244C11.0811 15.1555 11.4522 16.2969 12.0828 17.2301L12.0714 17.2127L10.0262 19.3597C9.87526 19.3067 9.70138 19.275 9.5208 19.2726L9.51965 19.2726H9.51791C8.53739 19.2726 7.74252 20.107 7.74252 21.1363C7.74252 22.1656 8.53739 23 9.51791 23C10.4984 23 11.2933 22.1656 11.2933 21.1363C11.291 20.9405 11.2596 20.7533 11.2033 20.578L11.2068 20.5908L11.2103 20.6037L13.2338 18.4796C14.1412 19.2128 15.2937 19.6547 16.5446 19.6547C19.5575 19.6547 22 17.0908 22 13.9279C22 11.0858 20.0278 8.72721 17.4416 8.27811L17.4099 8.27355L17.3836 8.26906ZM16.5418 16.8653C14.9985 16.8611 13.749 15.5469 13.749 13.9262C13.749 12.303 15.0025 10.9872 16.5488 10.9872C18.095 10.9872 19.3485 12.3031 19.3485 13.9262V13.9281C19.3475 15.5505 18.0944 16.8653 16.5488 16.8653C16.5463 16.8653 16.5438 16.8653 16.5414 16.8653H16.5418Z" fill="currentColor"/>
</svg>

<svg xmlns="http://www.w3.org/2000/svg" width="24" height="24" fill="currentColor" viewBox="0 0 24 24">
  <path d="M17.384 8.27V5.66a2.027 2.027 0 0 0 1.105-1.813v-.062c-.003-1.108-.858-2.006-1.914-2.01h-.059c-1.056.003-1.911.9-1.915 2.01v.06a2.024 2.024 0 0 0 1.082 1.804l.012.006.011.005v2.615a5.308 5.308 0 0 0-2.603 1.209l.01-.009.01-.008L6.289 3.88a2.34 2.34 0 0 0 .073-.59C6.361 2.025 5.385 1 4.181 1 2.976 1 2 2.025 2 3.29c0 1.263.976 2.288 2.18 2.288a2.09 2.09 0 0 0 1.107-.316l-.01.006-.01.005 6.72 5.492a5.81 5.81 0 0 0-.906 3.142v.018c0 1.23.371 2.372 1.002 3.305l-.012-.017-2.045 2.147a1.606 1.606 0 0 0-.505-.087h-.003c-.98 0-1.775.834-1.775 1.863 0 1.03.794 1.864 1.775 1.864.98 0 1.775-.834 1.775-1.864a1.894 1.894 0 0 0-.09-.558l.004.013.003.013 2.024-2.124a5.255 5.255 0 0 0 3.31 1.175c3.014 0 5.456-2.564 5.456-5.727 0-2.842-1.972-5.2-4.558-5.65l-.032-.004-.026-.005Zm-.842 8.595c-1.544-.004-2.793-1.318-2.793-2.939 0-1.623 1.253-2.939 2.8-2.939 1.546 0 2.8 1.316 2.8 2.94v.001c-.002 1.622-1.255 2.937-2.8 2.937h-.008Z"/>
</svg>
